public/svgs/trash.svg

<svg height="12" viewBox="0 0 10 12" width="10" xmlns="http://www.w3.org/2000/svg"><g fill="#0e1c2a"><path d="m9.2 2.14h-1.72v-1.27c0-.48048773-.38951227-.87-.87-.87h-3.43c-.22982941 0-.450103.09196277-.61167485.25541336-.16157185.1634506-.25099759.38477277-.24832515.61458664v1.27h-1.82c-.27614237 0-.5.22385763-.5.5s.22385763.5.5.5h.58v7.12c0 .5522847.44771525 1 1 1h5.6c.55228475 0 1-.4477153 1-1v-7.12h.52c.27614237 0 .5-.22385763.5-.5-.00532011-.27390845-.22609155-.49467989-.5-.5zm-5.88-1.14h3.16v1.14h-3.16zm4.33 9.23h-5.57v-7.09h5.53z"/><path d="m4.92 8.78c.27614237 0 .5-.22385763.5-.5v-3.2c0-.27614237-.22385763-.5-.5-.5s-.5.22385763-.5.5v3.2c0 .27614237.22385763.5.5.5z"/><path d="m9.2 2.14h-1.72v-1.27c0-.48048773-.38951227-.87-.87-.87h-3.43c-.22982941 0-.450103.09196277-.61167485.25541336-.16157185.1634506-.25099759.38477277-.24832515.61458664v1.27h-1.82c-.27614237 0-.5.22385763-.5.5s.22385763.5.5.5h.58v7.12c0 .5522847.44771525 1 1 1h5.6c.55228475 0 1-.4477153 1-1v-7.12h.52c.27614237 0 .5-.22385763.5-.5-.00532011-.27390845-.22609155-.49467989-.5-.5zm-5.88-1.14h3.16v1.14h-3.16zm4.33 9.23h-5.57v-7.09h5.53z"/><path d="m4.92 8.78c.27614237 0 .5-.22385763.5-.5v-3.2c0-.27614237-.22385763-.5-.5-.5s-.5.22385763-.5.5v3.2c0 .27614237.22385763.5.5.5z"/></g></svg>

<?xml version="1.0" encoding="UTF-8"?>
<svg width="10px" height="12px" viewBox="0 0 10 12" version="1.1" xmlns="http://www.w3.org/2000/svg" xmlns:xlink="http://www.w3.org/1999/xlink">
    <!-- Generator: Sketch 63.1 (92452) - https://sketch.com -->
    <desc>Created with Sketch.</desc>
    <g id="Page-1" stroke="none" stroke-width="1" fill="none" fill-rule="evenodd">
        <g id="Icons" transform="translate(-98.000000, -42.000000)" fill="#0E1C2A" fill-rule="nonzero">
            <g id="trash1" transform="translate(98.000000, 42.000000)">
                <path d="M9.2,2.14 L7.48,2.14 L7.48,0.87 C7.48,0.389512268 7.09048773,0 6.61,0 L3.18,0 C2.95017059,0 2.729897,0.0919627712 2.56832515,0.255413364 C2.4067533,0.418863956 2.31732756,0.640186125 2.32,0.87 L2.32,2.14 L0.5,2.14 C0.223857625,2.14 0,2.36385763 0,2.64 C0,2.91614237 0.223857625,3.14 0.5,3.14 L1.08,3.14 L1.08,10.26 C1.08,10.8122847 1.52771525,11.26 2.08,11.26 L7.68,11.26 C8.23228475,11.26 8.68,10.8122847 8.68,10.26 L8.68,3.14 L9.2,3.14 C9.47614237,3.14 9.7,2.91614237 9.7,2.64 C9.69467989,2.36609155 9.47390845,2.14532011 9.2,2.14 Z M3.32,1 L6.48,1 L6.48,2.14 L3.32,2.14 L3.32,1 Z M7.65,10.23 L2.08,10.23 L2.08,3.14 L7.61,3.14 L7.65,10.23 Z" id="Shape"></path>
                <path d="M4.92,8.78 C5.19614237,8.78 5.42,8.55614237 5.42,8.28 L5.42,5.08 C5.42,4.80385763 5.19614237,4.58 4.92,4.58 C4.64385763,4.58 4.42,4.80385763 4.42,5.08 L4.42,8.28 C4.42,8.55614237 4.64385763,8.78 4.92,8.78 L4.92,8.78 Z" id="Path"></path>
                <path d="M9.2,2.14 L7.48,2.14 L7.48,0.87 C7.48,0.389512268 7.09048773,0 6.61,0 L3.18,0 C2.95017059,0 2.729897,0.0919627712 2.56832515,0.255413364 C2.4067533,0.418863956 2.31732756,0.640186125 2.32,0.87 L2.32,2.14 L0.5,2.14 C0.223857625,2.14 0,2.36385763 0,2.64 C0,2.91614237 0.223857625,3.14 0.5,3.14 L1.08,3.14 L1.08,10.26 C1.08,10.8122847 1.52771525,11.26 2.08,11.26 L7.68,11.26 C8.23228475,11.26 8.68,10.8122847 8.68,10.26 L8.68,3.14 L9.2,3.14 C9.47614237,3.14 9.7,2.91614237 9.7,2.64 C9.69467989,2.36609155 9.47390845,2.14532011 9.2,2.14 Z M3.32,1 L6.48,1 L6.48,2.14 L3.32,2.14 L3.32,1 Z M7.65,10.23 L2.08,10.23 L2.08,3.14 L7.61,3.14 L7.65,10.23 Z" id="Shape"></path>
                <path d="M4.92,8.78 C5.19614237,8.78 5.42,8.55614237 5.42,8.28 L5.42,5.08 C5.42,4.80385763 5.19614237,4.58 4.92,4.58 C4.64385763,4.58 4.42,4.80385763 4.42,5.08 L4.42,8.28 C4.42,8.55614237 4.64385763,8.78 4.92,8.78 L4.92,8.78 Z" id="Path"></path>
            </g>
        </g>
    </g>
</svg>
